; generated by PrusaSlicer 2.9.2 on 2025-08-17 at 18:43:01 UTC

; 

; external perimeters extrusion width = 0.42mm
; perimeters extrusion width = 0.44mm
; infill extrusion width = 0.44mm
; solid infill extrusion width = 0.44mm
; top infill extrusion width = 0.40mm
; first layer extrusion width = 0.42mm

; external perimeters extrusion width = 0.42mm
; perimeters extrusion width = 0.44mm
; infill extrusion width = 0.44mm
; solid infill extrusion width = 0.44mm
; top infill extrusion width = 0.40mm
; first layer extrusion width = 0.42mm

; external perimeters extrusion width = 0.42mm
; perimeters extrusion width = 0.44mm
; infill extrusion width = 0.44mm
; solid infill extrusion width = 0.44mm
; top infill extrusion width = 0.40mm
; first layer extrusion width = 0.42mm

; external perimeters extrusion width = 0.42mm
; perimeters extrusion width = 0.44mm
; infill extrusion width = 0.44mm
; solid infill extrusion width = 0.44mm
; top infill extrusion width = 0.40mm
; first layer extrusion width = 0.42mm

; external perimeters extrusion width = 0.42mm
; perimeters extrusion width = 0.44mm
; infill extrusion width = 0.44mm
; solid infill extrusion width = 0.44mm
; top infill extrusion width = 0.40mm
; first layer extrusion width = 0.42mm

; external perimeters extrusion width = 0.42mm
; perimeters extrusion width = 0.44mm
; infill extrusion width = 0.44mm
; solid infill extrusion width = 0.44mm
; top infill extrusion width = 0.40mm
; first layer extrusion width = 0.42mm

M201 X500 Y500 Z100 E5000 ; sets maximum accelerations, mm/sec^2
M203 X500 Y500 Z10 E60 ; sets maximum feedrates, mm / sec
M204 S500 T1000 ; sets acceleration (S) and retract acceleration (R), mm/sec^2
M205 X8.00 Y8.00 Z0.40 E5.00 ; sets the jerk limits, mm/sec
M205 S0 T0 ; sets the minimum extruding and travel feed rate, mm/sec

; printing object edge id:0 copy 0
; stop printing object edge id:0 copy 0
; printing object edge id:4 copy 0
; stop printing object edge id:4 copy 0
; printing object edge id:2 copy 0
; stop printing object edge id:2 copy 0
; printing object cap id:1 copy 0
; stop printing object cap id:1 copy 0
; printing object cap id:5 copy 0
; stop printing object cap id:5 copy 0
; printing object edge id:3 copy 0
; stop printing object edge id:3 copy 0

;TYPE:Custom
G90 ; use absolute coordinates
M83 ; extruder relative mode
M104 S150 ; set temporary nozzle temp to prevent oozing during homing
M140 S60 ; set final bed temp
G4 S30 ; allow partial nozzle warmup
G28 ; home all axis and restore leveling
G1 Z50 F240
G1 X2.0 Y10 F3000
M104 S210 ; set final nozzle temp
M190 S60 ; wait for bed temp to stabilize
M109 S210 ; wait for nozzle temp to stabilize
G1 Z0.28 F240
G92 E0
G1 X2.0 Y140 E10 F1500 ; prime the nozzle
G1 X2.3 Y140 F5000
G92 E0
G1 X2.3 Y10 E10 F1200 ; prime the nozzle
G92 E0
G21 ; set units to millimeters
G90 ; use absolute coordinates
M83 ; use relative distances for extrusion
; Filament gcode
M107
;LAYER_CHANGE
;Z:0.2
;HEIGHT:0.2
G1 E-.8 F1800
G1 Z.2 F9000
G1 X67.052 Y70.224
G1 Z.2
G1 E.8 F1800
M204 S500
;TYPE:Skirt/Brim
;WIDTH:0.42
G1 F1200
G1 X81.492 Y56.436 E.62601
G1 X82.658 Y55.576 E.04543
G1 X84.021 Y54.961 E.04688
G1 X85.149 Y54.692 E.03636
G1 X86.188 Y54.612 E.03267
G1 X133.903 Y54.613 E1.49607
G1 X135.094 Y54.733 E.03753
G1 X136.192 Y55.034 E.0357
G1 X137.216 Y55.504 E.03533
G1 X138.278 Y56.235 E.04042
G1 X162.806 Y77.596 E1.01982
G1 X163.705 Y78.901 E.04969
G1 X163.9 Y80 E.035
G1 X163.902 Y140 E1.88126
G1 X163.508 Y141.535 E.04969
G1 X162.807 Y142.404 E.03501
G1 X138.356 Y163.698 E1.01662
G1 X137.031 Y164.596 E.05019
G1 X135.743 Y165.112 E.0435
G1 X134.851 Y165.308 E.02864
G1 X133.8 Y165.389 E.03305
G1 X86.2 Y165.389 E1.49246
G1 X84.7 Y165.225 E.04731
G1 X83.346 Y164.779 E.0447
G1 X82.372 Y164.246 E.03481
G1 X81.332 Y163.414 E.04176
G1 X59.231 Y142.306 E.95823
G1 X58.393 Y140.961 E.04969
G1 X58.245 Y140 E.03049
G1 X58.242 Y80 E1.88126
G1 X58.636 Y78.465 E.04969
G1 X59.229 Y77.694 E.0305
G1 X67.009 Y70.265 E.33729
;WIPE_START
G1 F7200
G1 X67.052 Y70.224 E-.01411
G1 X69.445 Y67.939 E-.78589
;WIPE_END
; printing object edge id:3 copy 0
G1 X155.208 Y81.064 F9000
G1 E.8 F1800
;TYPE:Perimeter
;WIDTH:0.419999
G1 F1200
G1 X159.417 Y81.064 E.13197
G1 X159.417 Y83.169 E.066
G1 X159.417 Y138.936 E1.74853
G1 X155.207 Y138.936 E.132
G1 X155.208 Y81.124 E1.81265
G1 X154.831 Y80.687 F9000
G1 F1200
G1 X159.794 Y80.687 E.15561
G1 X159.794 Y83.169 E.07782
G1 X159.794 Y139.313 E1.76035
G1 X154.83 Y139.313 E.15564
G1 X154.831 Y80.747 E1.83629
G1 X154.454 Y80.31 F9000
;TYPE:External perimeter
G1 F1200
G1 X160.171 Y80.31 E.17925
G1 X160.171 Y83.169 E.08964
G1 X160.171 Y139.69 E1.77217
G1 X154.453 Y139.69 E.17928
G1 X154.454 Y80.37 E1.85993
;WIPE_START
G1 F7200
G1 X154.454 Y80.31 E-.01425
G1 X157.762 Y80.31 E-.78575
;WIPE_END
G1 X159.296 Y81.952 F9000
G1 E.8 F1800
;TYPE:Solid infill
;WIDTH:0.422138
G1 F1200
G1 X158.699 Y81.355 E.02662
G1 X158.163 Y81.355 E.0169
G1 X159.126 Y82.318 E.04294
G1 X159.126 Y82.855 E.01693
G1 X157.626 Y81.355 E.06689
G1 X157.09 Y81.355 E.0169
G1 X159.126 Y83.391 E.09079
G1 X159.126 Y83.927 E.0169
G1 X156.554 Y81.355 E.11469
G1 X156.017 Y81.355 E.01693
G1 X159.126 Y84.463 E.13862
G1 X159.126 Y85 E.01693
G1 X155.498 Y81.372 E.16178
G1 X155.498 Y81.908 E.0169
G1 X159.126 Y85.536 E.16178
G1 X159.126 Y86.072 E.0169
G1 X155.498 Y82.444 E.16178
G1 X155.498 Y82.98 E.0169
G1 X159.126 Y86.609 E.16181
G1 X159.126 Y87.145 E.0169
G1 X155.498 Y83.517 E.16178
G1 X155.498 Y84.053 E.0169
G1 X159.126 Y87.681 E.16178
G1 X159.126 Y88.218 E.01693
G1 X155.498 Y84.589 E.16181
G1 X155.498 Y85.126 E.01693
G1 X159.126 Y88.754 E.16178
G1 X159.126 Y89.29 E.0169
G1 X155.498 Y85.662 E.16178
G1 X155.498 Y86.198 E.0169
G1 X159.126 Y89.826 E.16178
G1 X159.126 Y90.363 E.01693
G1 X155.498 Y86.735 E.16178
G1 X155.498 Y87.271 E.0169
G1 X159.126 Y90.899 E.16178
G1 X159.126 Y91.435 E.0169
G1 X155.498 Y87.807 E.16178
G1 X155.498 Y88.343 E.0169
G1 X159.126 Y91.972 E.16181
G1 X159.126 Y92.508 E.0169
G1 X155.498 Y88.88 E.16178
G1 X155.498 Y89.416 E.0169
G1 X159.126 Y93.044 E.16178
G1 X159.126 Y93.58 E.0169
G1 X155.498 Y89.952 E.16178
G1 X155.498 Y90.489 E.01693
G1 X159.126 Y94.117 E.16178
G1 X159.126 Y94.653 E.0169
G1 X155.498 Y91.025 E.16178
G1 X155.498 Y91.561 E.0169
G1 X159.126 Y95.189 E.16178
G1 X159.126 Y95.726 E.01693
G1 X155.498 Y92.097 E.16181
G1 X155.498 Y92.634 E.01693
G1 X159.126 Y96.262 E.16178
G1 X159.126 Y96.798 E.0169
G1 X155.498 Y93.17 E.16178
G1 X155.498 Y93.706 E.0169
G1 X159.126 Y97.335 E.16181
G1 X159.126 Y97.871 E.0169
G1 X155.498 Y94.243 E.16178
G1 X155.498 Y94.779 E.0169
G1 X159.126 Y98.407 E.16178
G1 X159.126 Y98.943 E.0169
G1 X155.498 Y95.315 E.16178
G1 X155.498 Y95.851 E.0169
G1 X159.126 Y99.48 E.16181
G1 X159.126 Y100.016 E.0169
G1 X155.498 Y96.388 E.16178
G1 X155.498 Y96.924 E.0169
G1 X159.126 Y100.552 E.16178
G1 X159.126 Y101.089 E.01693
G1 X155.498 Y97.46 E.16181
G1 X155.498 Y97.997 E.01693
G1 X159.126 Y101.625 E.16178
G1 X159.126 Y102.161 E.0169
G1 X155.498 Y98.533 E.16178
G1 X155.498 Y99.069 E.0169
G1 X159.126 Y102.697 E.16178
G1 X159.126 Y103.234 E.01693
G1 X155.498 Y99.605 E.16181
G1 X155.498 Y100.142 E.01693
G1 X159.126 Y103.77 E.16178
G1 X159.126 Y104.306 E.0169
G1 X155.498 Y100.678 E.16178
G1 X155.498 Y101.214 E.0169
G1 X159.126 Y104.843 E.16181
G1 X159.126 Y105.379 E.0169
G1 X155.498 Y101.751 E.16178
G1 X155.498 Y102.287 E.0169
G1 X159.126 Y105.915 E.16178
G1 X159.126 Y106.452 E.01693
G1 X155.498 Y102.823 E.16181
G1 X155.498 Y103.359 E.0169
G1 X159.126 Y106.988 E.16181
G1 X159.126 Y107.524 E.0169
G1 X155.498 Y103.896 E.16178
G1 X155.498 Y104.432 E.0169
G1 X159.126 Y108.06 E.16178
G1 X159.126 Y108.597 E.01693
G1 X155.498 Y104.968 E.16181
G1 X155.498 Y105.505 E.01693
G1 X159.126 Y109.133 E.16178
G1 X159.126 Y109.669 E.0169
G1 X155.498 Y106.041 E.16178
G1 X155.498 Y106.577 E.0169
G1 X159.126 Y110.206 E.16181
G1 X159.126 Y110.742 E.0169
G1 X155.498 Y107.113 E.16181
G1 X155.498 Y107.65 E.01693
G1 X159.126 Y111.278 E.16178
G1 X159.126 Y111.815 E.01693
G1 X155.498 Y108.186 E.16181
G1 X155.498 Y108.722 E.0169
G1 X159.126 Y112.351 E.16181
G1 X159.126 Y112.887 E.0169
G1 X155.498 Y109.259 E.16178
G1 X155.498 Y109.795 E.0169
G1 X159.126 Y113.423 E.16178
G1 X159.126 Y113.96 E.01693
G1 X155.498 Y110.331 E.16181
G1 X155.498 Y110.867 E.0169
G1 X159.126 Y114.496 E.16181
G1 X159.126 Y115.032 E.0169
G1 X155.498 Y111.404 E.16178
G1 X155.498 Y111.94 E.0169
G1 X159.126 Y115.569 E.16181
G1 X159.126 Y116.105 E.0169
G1 X155.498 Y112.476 E.16181
G1 X155.498 Y113.013 E.01693
G1 X159.126 Y116.641 E.16178
G1 X159.126 Y117.177 E.0169
G1 X155.498 Y113.549 E.16178
G1 X155.498 Y114.085 E.0169
G1 X159.126 Y117.714 E.16181
G1 X159.126 Y118.25 E.0169
G1 X155.498 Y114.621 E.16181
G1 X155.498 Y115.158 E.01693
G1 X159.126 Y118.786 E.16178
G1 X159.126 Y119.323 E.01693
G1 X155.498 Y115.694 E.16181
G1 X155.498 Y116.23 E.0169
G1 X159.126 Y119.859 E.16181
G1 X159.126 Y120.395 E.0169
G1 X155.498 Y116.767 E.16178
G1 X155.498 Y117.303 E.0169
G1 X159.126 Y120.932 E.16181
G1 X159.126 Y121.468 E.0169
G1 X155.498 Y117.839 E.16181
G1 X155.498 Y118.375 E.0169
G1 X159.126 Y122.004 E.16181
G1 X159.126 Y122.54 E.0169
G1 X155.498 Y118.912 E.16178
G1 X155.498 Y119.448 E.0169
G1 X159.126 Y123.077 E.16181
G1 X159.126 Y123.613 E.0169
G1 X155.498 Y119.984 E.16181
G1 X155.498 Y120.521 E.01693
G1 X159.126 Y124.149 E.16178
G1 X159.126 Y124.686 E.01693
G1 X155.498 Y121.057 E.16181
G1 X155.498 Y121.593 E.0169
G1 X159.126 Y125.222 E.16181
G1 X159.126 Y125.758 E.0169
G1 X155.498 Y122.129 E.16181
G1 X155.498 Y122.666 E.01693
G1 X159.126 Y126.295 E.16181
G1 X159.126 Y126.831 E.0169
G1 X155.498 Y123.202 E.16181
G1 X155.498 Y123.738 E.0169
G1 X159.126 Y127.367 E.16181
G1 X159.126 Y127.903 E.0169
G1 X155.498 Y124.275 E.16178
G1 X155.498 Y124.811 E.0169
G1 X159.126 Y128.44 E.16181
G1 X159.126 Y128.976 E.0169
G1 X155.498 Y125.347 E.16181
G1 X155.498 Y125.883 E.0169
G1 X159.126 Y129.512 E.16181
G1 X159.126 Y130.049 E.01693
G1 X155.498 Y126.42 E.16181
G1 X155.498 Y126.956 E.0169
G1 X159.126 Y130.585 E.16181
G1 X159.126 Y131.121 E.0169
G1 X155.498 Y127.492 E.16181
G1 X155.498 Y128.029 E.01693
G1 X159.126 Y131.657 E.16178
G1 X159.126 Y132.194 E.01693
G1 X155.498 Y128.565 E.16181
G1 X155.498 Y129.101 E.0169
G1 X159.126 Y132.73 E.16181
G1 X159.126 Y133.266 E.0169
G1 X155.497 Y129.637 E.16183
G1 X155.497 Y130.174 E.01693
G1 X159.126 Y133.803 E.16183
G1 X159.126 Y134.339 E.0169
G1 X155.497 Y130.71 E.16183
G1 X155.497 Y131.246 E.0169
G1 X159.126 Y134.875 E.16183
G1 X159.126 Y135.412 E.01693
G1 X155.497 Y131.783 E.16183
G1 X155.497 Y132.319 E.0169
G1 X159.126 Y135.948 E.16183
G1 X159.126 Y136.484 E.0169
G1 X155.497 Y132.855 E.16183
G1 X155.497 Y133.392 E.01693
G1 X159.126 Y137.02 E.16181
G1 X159.126 Y137.557 E.01693
G1 X155.497 Y133.928 E.16183
G1 X155.497 Y134.464 E.0169
G1 X159.126 Y138.093 E.16183
G1 X159.126 Y138.629 E.0169
G1 X155.497 Y135 E.16183
G1 X155.497 Y135.537 E.01693
G1 X158.606 Y138.645 E.13862
G1 X158.07 Y138.645 E.0169
G1 X155.497 Y136.073 E.11472
G1 X155.497 Y136.609 E.0169
G1 X157.534 Y138.645 E.09081
G1 X156.997 Y138.645 E.01693
G1 X155.497 Y137.146 E.06687
G1 X155.497 Y137.682 E.0169
G1 X156.461 Y138.645 E.04297
G1 X155.925 Y138.645 E.0169
G1 X155.328 Y138.048 E.02662
;WIPE_START
G1 F7200
G1 X155.925 Y138.645 E-.20052
G1 X156.461 Y138.645 E-.1273
G1 X155.497 Y137.682 E-.32362
G1 X155.497 Y137.146 E-.1273
G1 X155.56 Y137.209 E-.02126
;WIPE_END
; stop printing object edge id:3 copy 0
; printing object edge id:0 copy 0
G1 X147.817 Y138.936 F9000
G1 E.8 F1800
;TYPE:Perimeter
;WIDTH:0.419999
G1 F1200
G1 X143.607 Y138.936 E.132
G1 X143.608 Y81.064 E1.81453
G1 X147.817 Y81.064 E.13197
G1 X147.817 Y83.169 E.066
G1 X147.817 Y138.876 E1.74665
G1 X148.194 Y139.313 F9000
G1 F1200
G1 X143.23 Y139.313 E.15564
G1 X143.231 Y80.687 E1.83817
G1 X148.194 Y80.687 E.15561
G1 X148.194 Y83.169 E.07782
G1 X148.194 Y139.253 E1.75847
G1 X148.571 Y139.69 F9000
;TYPE:External perimeter
G1 F1200
G1 X142.853 Y139.69 E.17928
G1 X142.854 Y80.31 E1.86182
G1 X148.571 Y80.31 E.17925
G1 X148.571 Y83.169 E.08964
G1 X148.571 Y139.63 E1.77029
;WIPE_START
G1 F7200
G1 X148.571 Y139.69 E-.01425
G1 X145.262 Y139.69 E-.78575
;WIPE_END
G1 X147.696 Y81.952 F9000
G1 E.8 F1800
;TYPE:Solid infill
;WIDTH:0.422138
G1 F1200
G1 X147.099 Y81.355 E.02662
G1 X146.563 Y81.355 E.0169
G1 X147.526 Y82.318 E.04294
G1 X147.526 Y82.855 E.01693
G1 X146.026 Y81.355 E.06689
G1 X145.49 Y81.355 E.0169
G1 X147.526 Y83.391 E.09079
G1 X147.526 Y83.927 E.0169
G1 X144.954 Y81.355 E.11469
G1 X144.417 Y81.355 E.01693
G1 X147.526 Y84.463 E.13862
G1 X147.526 Y85 E.01693
G1 X143.898 Y81.372 E.16178
G1 X143.898 Y81.908 E.0169
G1 X147.526 Y85.536 E.16178
G1 X147.526 Y86.072 E.0169
G1 X143.898 Y82.444 E.16178
G1 X143.898 Y82.98 E.0169
G1 X147.526 Y86.609 E.16181
G1 X147.526 Y87.145 E.0169
G1 X143.898 Y83.517 E.16178
G1 X143.898 Y84.053 E.0169
G1 X147.526 Y87.681 E.16178
G1 X147.526 Y88.218 E.01693
G1 X143.898 Y84.589 E.16181
G1 X143.898 Y85.126 E.01693
G1 X147.526 Y88.754 E.16178
G1 X147.526 Y89.29 E.0169
G1 X143.898 Y85.662 E.16178
G1 X143.898 Y86.198 E.0169
G1 X147.526 Y89.826 E.16178
G1 X147.526 Y90.363 E.01693
G1 X143.898 Y86.735 E.16178
G1 X143.898 Y87.271 E.0169
G1 X147.526 Y90.899 E.16178
G1 X147.526 Y91.435 E.0169
G1 X143.898 Y87.807 E.16178
G1 X143.898 Y88.343 E.0169
G1 X147.526 Y91.972 E.16181
G1 X147.526 Y92.508 E.0169
G1 X143.898 Y88.88 E.16178
G1 X143.898 Y89.416 E.0169
G1 X147.526 Y93.044 E.16178
G1 X147.526 Y93.58 E.0169
G1 X143.898 Y89.952 E.16178
G1 X143.898 Y90.489 E.01693
G1 X147.526 Y94.117 E.16178
G1 X147.526 Y94.653 E.0169
G1 X143.898 Y91.025 E.16178
G1 X143.898 Y91.561 E.0169
G1 X147.526 Y95.189 E.16178
G1 X147.526 Y95.726 E.01693
G1 X143.898 Y92.097 E.16181
G1 X143.898 Y92.634 E.01693
G1 X147.526 Y96.262 E.16178
G1 X147.526 Y96.798 E.0169
G1 X143.898 Y93.17 E.16178
G1 X143.898 Y93.706 E.0169
G1 X147.526 Y97.335 E.16181
G1 X147.526 Y97.871 E.0169
G1 X143.898 Y94.243 E.16178
G1 X143.898 Y94.779 E.0169
G1 X147.526 Y98.407 E.16178
G1 X147.526 Y98.943 E.0169
G1 X143.898 Y95.315 E.16178
G1 X143.898 Y95.851 E.0169
G1 X147.526 Y99.48 E.16181
G1 X147.526 Y100.016 E.0169
G1 X143.898 Y96.388 E.16178
G1 X143.898 Y96.924 E.0169
G1 X147.526 Y100.552 E.16178
G1 X147.526 Y101.089 E.01693
G1 X143.898 Y97.46 E.16181
G1 X143.898 Y97.997 E.01693
G1 X147.526 Y101.625 E.16178
G1 X147.526 Y102.161 E.0169
G1 X143.898 Y98.533 E.16178
G1 X143.898 Y99.069 E.0169
G1 X147.526 Y102.697 E.16178
G1 X147.526 Y103.234 E.01693
G1 X143.898 Y99.605 E.16181
G1 X143.898 Y100.142 E.01693
G1 X147.526 Y103.77 E.16178
G1 X147.526 Y104.306 E.0169
G1 X143.898 Y100.678 E.16178
G1 X143.898 Y101.214 E.0169
G1 X147.526 Y104.843 E.16181
G1 X147.526 Y105.379 E.0169
G1 X143.898 Y101.751 E.16178
G1 X143.898 Y102.287 E.0169
G1 X147.526 Y105.915 E.16178
G1 X147.526 Y106.452 E.01693
G1 X143.898 Y102.823 E.16181
G1 X143.898 Y103.359 E.0169
G1 X147.526 Y106.988 E.16181
G1 X147.526 Y107.524 E.0169
G1 X143.898 Y103.896 E.16178
G1 X143.898 Y104.432 E.0169
G1 X147.526 Y108.06 E.16178
G1 X147.526 Y108.597 E.01693
G1 X143.898 Y104.968 E.16181
G1 X143.898 Y105.505 E.01693
G1 X147.526 Y109.133 E.16178
G1 X147.526 Y109.669 E.0169
G1 X143.898 Y106.041 E.16178
G1 X143.898 Y106.577 E.0169
G1 X147.526 Y110.206 E.16181
G1 X147.526 Y110.742 E.0169
G1 X143.898 Y107.113 E.16181
G1 X143.898 Y107.65 E.01693
G1 X147.526 Y111.278 E.16178
G1 X147.526 Y111.815 E.01693
G1 X143.898 Y108.186 E.16181
G1 X143.898 Y108.722 E.0169
G1 X147.526 Y112.351 E.16181
G1 X147.526 Y112.887 E.0169
G1 X143.898 Y109.259 E.16178
G1 X143.898 Y109.795 E.0169
G1 X147.526 Y113.423 E.16178
G1 X147.526 Y113.96 E.01693
G1 X143.898 Y110.331 E.16181
G1 X143.898 Y110.867 E.0169
G1 X147.526 Y114.496 E.16181
G1 X147.526 Y115.032 E.0169
G1 X143.898 Y111.404 E.16178
G1 X143.898 Y111.94 E.0169
G1 X147.526 Y115.569 E.16181
G1 X147.526 Y116.105 E.0169
G1 X143.898 Y112.476 E.16181
G1 X143.898 Y113.013 E.01693
G1 X147.526 Y116.641 E.16178
G1 X147.526 Y117.177 E.0169
G1 X143.898 Y113.549 E.16178
G1 X143.898 Y114.085 E.0169
